components/src/assets/interledger_logo.svg

<svg width="99" height="24" viewBox="0 0 99 24" fill="none" xmlns="http://www.w3.org/2000/svg">
<path d="M20.497 14.8685C21.0619 13.1461 20.836 11.2186 20.497 9.56168C19.7877 8.04815 18.898 6.45106 17.4386 5.40089C15.9592 4.33553 14.082 3.95667 12.3871 3.76392C10.715 3.96521 8.89764 4.25007 7.43823 5.30024C5.95983 6.36465 5.02455 8.07758 4.31621 9.61486C3.99337 11.2528 3.75884 13.1689 4.31621 14.8685C4.88118 16.591 6.18107 17.8861 7.43823 19.0293C8.90999 19.8402 10.5764 20.6245 12.3805 20.6245C14.2083 20.6245 15.9526 19.8269 17.4386 18.9961C18.672 17.8586 19.9396 16.5682 20.497 14.8685Z" fill="white"/>
<path d="M12.4082 20.3014C10.6051 20.3014 8.9102 19.839 7.4375 19.0291C7.49447 20.1723 9.73059 21.5273 12.4462 21.5273C15.1618 21.5273 17.2717 19.8618 17.4378 18.9958C15.9518 19.8267 14.2361 20.3014 12.4082 20.3014Z" fill="#B4EEE0"/>
<path d="M7.43781 19.0297C6.18064 17.8865 5.19504 16.4157 4.63008 14.6933C4.07271 12.9937 3.992 11.2541 4.31579 9.61621C3.32923 9.85074 2.80605 13.176 3.46597 15.1082C4.12588 17.0386 6.45695 19.4513 7.43781 19.0297Z" fill="#D3D6E2"/>
<path d="M7.61011 5.62891C9.06952 4.57875 10.7141 3.96536 12.3862 3.76406C11.5734 3.05287 8.28142 3.5789 6.8524 4.6604C5.42337 5.74191 3.73892 8.60281 4.31528 9.61595C5.02457 8.07678 6.13076 6.69333 7.61011 5.62891Z" fill="#FFC9DD"/>
<path d="M12.3867 3.76414C14.1353 3.96218 15.8034 4.60739 17.2302 5.63754C18.6896 6.68771 19.7863 8.04837 20.4956 9.5619C21.109 8.53167 19.7407 5.81035 17.9262 4.6244C16.1117 3.43845 12.8491 3.12891 12.3867 3.76414Z" fill="#FFEBB2"/>
<path d="M20.4959 9.56055C20.8349 11.2175 20.7599 12.9817 20.1949 14.7041C19.6581 16.3468 18.7086 17.8242 17.4375 18.995C18.839 19.1289 20.7855 17.283 21.3828 15.0469C21.98 12.8117 21.3704 9.68019 20.4959 9.56055Z" fill="#C6E4A2"/>
<path d="M3.46718 15.1069C2.86899 15.8552 3.62575 19.0028 6.16002 20.7851C8.69429 22.5673 11.8923 22.179 12.4477 21.5266C10.5791 21.1706 8.84052 20.3027 7.43902 19.0294C5.77642 18.1131 4.39771 16.7515 3.46718 15.1069Z" fill="#A4BFDD"/>
<path d="M21.3822 15.0469C20.4631 16.6981 19.0938 18.0682 17.4369 18.995C16.044 20.2787 14.3111 21.158 12.4453 21.5264C13.1147 22.3335 16.7561 21.9252 18.7273 20.744C20.6985 19.5628 21.7648 16.0724 21.3822 15.0469Z" fill="#99E2D1"/>
<path d="M4.31532 9.61517C4.68089 7.76456 5.56204 6.04498 6.85244 4.65963C5.52596 4.17442 3.01353 6.37351 2.23398 8.95146C1.45442 11.5294 2.08111 14.4796 3.4655 15.1062C3.23002 13.2357 3.52532 11.3291 4.31532 9.61517Z" fill="#FFA7B3"/>
<path d="M12.3854 3.76422C14.2749 3.53728 16.1977 3.83543 17.9249 4.62353C18.4917 3.56007 14.893 1.59741 12.3787 1.59741C9.86439 1.59741 6.89429 3.31699 6.85156 4.65961C8.57494 3.85917 10.4958 3.54867 12.3854 3.76422Z" fill="#FFCCAA"/>
<path d="M21.382 15.0471C22.5794 14.8163 23.47 11.87 22.5727 8.88565C21.6745 5.90131 18.8962 4.31656 17.9258 4.62326C19.2266 6.00006 20.1182 7.71394 20.4961 9.56076C21.2975 11.2708 21.6052 13.1756 21.382 15.0471Z" fill="#E9D59E"/>
<path d="M6.15719 20.7851C5.86948 20.4803 5.59697 20.1546 5.34345 19.808C4.29043 18.3714 3.6723 16.7525 3.4653 15.1069C2.63637 13.6418 2.16351 11.9517 2.16351 10.1514C2.16351 9.74595 2.1882 9.34525 2.23472 8.95215C1.27381 9.21706 0.114446 13.0303 1.16651 15.8552C2.21763 18.6809 5.26559 20.9436 6.15719 20.7851Z" fill="#A499D7"/>
<path d="M18.7299 20.7441C18.3482 20.9217 17.9513 21.0774 17.5401 21.2094C15.8358 21.7582 14.0915 21.8399 12.4479 21.5265C10.7843 21.8551 9.01631 21.7782 7.28914 21.2217C6.89983 21.0964 6.52287 20.9492 6.16016 20.784C6.61118 22.158 8.90047 23.9231 12.4564 23.9231C16.0124 23.9241 18.0719 22.1931 18.7299 20.7441Z" fill="#56B8B6"/>
<path d="M22.5731 8.88525C22.6253 9.29924 22.6519 9.72178 22.6519 10.15C22.6519 11.9256 22.1914 13.5949 21.3824 15.0467C21.1839 16.7159 20.5639 18.3586 19.4957 19.8142C19.2545 20.1418 18.9981 20.4523 18.7266 20.7429C20.373 20.8492 22.7991 19.0489 23.6859 15.7797C24.5728 12.5105 23.4666 9.2869 22.5731 8.88525Z" fill="#68C280"/>
<path d="M2.23508 8.95122C2.43923 8.58566 2.66712 8.22769 2.92159 7.88206C3.9746 6.44544 5.33716 5.36394 6.8526 4.65939C8.00342 3.42502 9.47897 2.45746 11.2071 1.90104C11.5964 1.7757 11.9885 1.67505 12.3798 1.59719C10.9897 0.908792 7.59322 1.31709 5.42357 2.72427C3.25487 4.13146 1.83629 7.62379 2.23508 8.95122Z" fill="#FF7A7F"/>
<path d="M12.3789 1.5977C12.7929 1.67651 13.2069 1.78191 13.6171 1.91389C15.3215 2.46271 16.7809 3.41223 17.925 4.62287C19.4652 5.32551 20.8505 6.41746 21.9178 7.87402C22.158 8.20256 22.3764 8.54059 22.572 8.88526C23.1987 7.70121 21.2968 4.14051 19.3408 2.67825C17.3848 1.21599 13.8364 0.945381 12.3789 1.5977Z" fill="#FFBA86"/>
<path d="M2.23639 8.95107C2.52694 6.50226 3.69675 4.32121 5.42583 2.72412C3.26472 3.93001 1.53754 5.91071 0.711462 8.43073C-0.123166 10.9745 0.111365 13.6085 1.16818 15.8541C0.701966 13.5581 1.03335 11.1084 2.23639 8.95107Z" fill="#835283"/>
<path d="M6.15864 20.7849C3.96305 19.7855 2.19419 18.0382 1.16797 15.855C1.65792 18.263 3.02428 20.5029 5.18823 22.061C7.37118 23.6325 9.97191 24.2259 12.4549 23.924C10.1058 23.6543 7.85733 22.5842 6.15864 20.7849Z" fill="#8075B4"/>
<path d="M18.7305 20.7441C17.0432 22.5558 14.8023 23.6392 12.457 23.9241C14.9191 24.208 17.4923 23.6107 19.6563 22.0535C21.8392 20.4811 23.2122 18.2146 23.6898 15.781C22.7042 17.9108 20.9828 19.6997 18.7305 20.7441Z" fill="#2E9D87"/>
<path d="M22.5711 8.8855C23.7883 11.0362 24.1359 13.4821 23.6848 15.7809C24.717 13.5476 24.9401 10.9393 24.1131 8.41929C23.2794 5.87553 21.5285 3.88154 19.3398 2.67944C21.0803 4.26514 22.2644 6.44049 22.5711 8.8855Z" fill="#549558"/>
<path d="M12.381 1.5978C14.8213 1.11544 17.2767 1.54367 19.3429 2.6793C17.5189 1.01574 15.0833 -0.000244141 12.4095 -0.000244141C9.71096 -0.000244141 7.25551 1.03473 5.42578 2.72488C7.48529 1.57501 9.93885 1.13063 12.381 1.5978Z" fill="#FF9952"/>
<path d="M94.6953 17.6607V9.68475H95.8758V10.7695C96.801 10.1314 97.774 9.71134 98.795 9.50928V10.7216C98.3483 10.8067 97.8804 10.9396 97.3912 11.1204C96.9126 11.3012 96.5457 11.4607 96.2905 11.599L95.8917 11.8064V17.6607H94.6953Z" fill="#363636"/>
<path d="M92.384 16.6719L92.8466 16.624L92.8785 17.5652C91.6661 17.7353 90.6293 17.8204 89.7679 17.8204C88.6193 17.8204 87.8058 17.4907 87.3272 16.8314C86.8487 16.1614 86.6094 15.1245 86.6094 13.7207C86.6094 10.9238 87.7207 9.52539 89.9433 9.52539C91.0174 9.52539 91.8203 9.82848 92.3521 10.4347C92.8838 11.0302 93.1497 11.9714 93.1497 13.2581L93.0859 14.1674H87.8217C87.8217 15.0501 87.9812 15.7041 88.3003 16.1295C88.6193 16.5549 89.1723 16.7676 89.9593 16.7676C90.7569 16.7676 91.5651 16.7357 92.384 16.6719ZM91.9533 13.2103C91.9533 12.2319 91.7938 11.5407 91.4747 11.1365C91.1663 10.7324 90.6558 10.5304 89.9433 10.5304C89.2414 10.5304 88.7097 10.7431 88.3481 11.1684C87.9972 11.5938 87.8164 12.2744 87.8058 13.2103H91.9533Z" fill="#363636"/>
<path d="M82.164 21.4096C80.8879 21.4096 79.9946 21.2341 79.4841 20.8832C78.9843 20.5429 78.7344 19.9154 78.7344 19.0008C78.7344 18.5648 78.8301 18.2086 79.0215 17.9321C79.2129 17.6662 79.5373 17.3631 79.9946 17.0228C79.6968 16.8207 79.5479 16.4538 79.5479 15.9221C79.5479 15.7413 79.6809 15.4063 79.9467 14.9171L80.0903 14.6619C79.2502 14.2791 78.8301 13.4762 78.8301 12.2532C78.8301 10.4347 79.8244 9.52539 81.8131 9.52539C82.3236 9.52539 82.7968 9.57856 83.2328 9.68491L83.4721 9.73277L85.833 9.66896V10.6899L84.3175 10.658C84.6685 11.0089 84.844 11.5407 84.844 12.2532C84.844 13.2528 84.5941 13.9547 84.0942 14.3588C83.605 14.7523 82.8287 14.949 81.7652 14.949C81.4781 14.949 81.2176 14.9278 80.9836 14.8852C80.7922 15.3532 80.6965 15.6562 80.6965 15.7945C80.6965 16.1242 80.7975 16.3315 80.9995 16.4166C81.2016 16.4911 81.8131 16.5283 82.834 16.5283C83.8549 16.5283 84.5887 16.6878 85.0354 17.0068C85.482 17.3259 85.7054 17.948 85.7054 18.8732C85.7054 20.5641 84.5249 21.4096 82.164 21.4096ZM79.9148 18.9051C79.9148 19.4688 80.069 19.8569 80.3774 20.0696C80.6965 20.2929 81.276 20.4046 82.1162 20.4046C82.9669 20.4046 83.5731 20.2876 83.9347 20.0537C84.3069 19.8197 84.493 19.4262 84.493 18.8732C84.493 18.3309 84.3601 17.9799 84.0942 17.8204C83.8284 17.6609 83.3073 17.5811 82.5309 17.5811L80.8081 17.5014C80.4572 17.7566 80.2179 17.9799 80.0903 18.1713C79.9733 18.3628 79.9148 18.6074 79.9148 18.9051ZM80.0265 12.2532C80.0265 12.8806 80.1647 13.3273 80.4412 13.5931C80.7284 13.859 81.1963 13.9919 81.845 13.9919C82.4937 13.9919 82.9563 13.859 83.2328 13.5931C83.5093 13.3273 83.6476 12.8806 83.6476 12.2532C83.6476 11.6151 83.5093 11.1631 83.2328 10.8973C82.9563 10.6314 82.4937 10.4985 81.845 10.4985C81.1963 10.4985 80.7284 10.6367 80.4412 10.9132C80.1647 11.1791 80.0265 11.6257 80.0265 12.2532Z" fill="#363636"/>
<path d="M77.0859 6.20728V17.6608H75.9054V17.1184C75.0865 17.5863 74.2783 17.8203 73.4807 17.8203C73.0553 17.8203 72.6831 17.7671 72.3641 17.6608C72.045 17.5544 71.7473 17.363 71.4708 17.0865C70.8965 16.5122 70.6094 15.4541 70.6094 13.9121C70.6094 12.3594 70.8646 11.2428 71.3751 10.5622C71.8962 9.8709 72.7523 9.52528 73.9433 9.52528C74.5601 9.52528 75.2142 9.5944 75.9054 9.73265V6.20728H77.0859ZM72.396 16.2251C72.5661 16.4271 72.7469 16.5654 72.9384 16.6398C73.1298 16.7143 73.3744 16.7515 73.6721 16.7515C73.9806 16.7515 74.3209 16.7036 74.6931 16.6079C75.0759 16.5016 75.3737 16.4006 75.5864 16.3048L75.9054 16.1613V10.7536C75.2248 10.626 74.592 10.5622 74.0071 10.5622C73.1989 10.5622 72.6353 10.8227 72.3162 11.3438C71.9972 11.8543 71.8377 12.6519 71.8377 13.7366C71.8377 14.9702 72.0238 15.7997 72.396 16.2251Z" fill="#363636"/>
<path d="M68.6496 16.6719L69.1122 16.624L69.1441 17.5652C67.9318 17.7353 66.8949 17.8204 66.0335 17.8204C64.8849 17.8204 64.0714 17.4907 63.5928 16.8314C63.1143 16.1614 62.875 15.1245 62.875 13.7207C62.875 10.9238 63.9863 9.52539 66.209 9.52539C67.283 9.52539 68.086 9.82848 68.6177 10.4347C69.1494 11.0302 69.4153 11.9714 69.4153 13.2581L69.3515 14.1674H64.0873C64.0873 15.0501 64.2469 15.7041 64.5659 16.1295C64.8849 16.5549 65.4379 16.7676 66.2249 16.7676C67.0225 16.7676 67.8307 16.7357 68.6496 16.6719ZM68.2189 13.2103C68.2189 12.2319 68.0594 11.5407 67.7403 11.1365C67.4319 10.7324 66.9215 10.5304 66.209 10.5304C65.5071 10.5304 64.9753 10.7431 64.6138 11.1684C64.2628 11.5938 64.082 12.2744 64.0714 13.2103H68.2189Z" fill="#363636"/>
<path d="M59.9492 17.6608V6.20728H61.1456V17.6608H59.9492Z" fill="#363636"/>
<path d="M54.6562 17.6607V9.68475H55.8367V10.7695C56.7619 10.1314 57.735 9.71134 58.7559 9.50928V10.7216C58.3092 10.8067 57.8413 10.9396 57.3521 11.1204C56.8736 11.3012 56.5067 11.4607 56.2514 11.599L55.8526 11.8064V17.6607H54.6562Z" fill="#363636"/>
<path d="M52.3449 16.6719L52.8075 16.624L52.8394 17.5652C51.6271 17.7353 50.5902 17.8204 49.7288 17.8204C48.5803 17.8204 47.7667 17.4907 47.2882 16.8314C46.8096 16.1614 46.5703 15.1245 46.5703 13.7207C46.5703 10.9238 47.6816 9.52539 49.9043 9.52539C50.9784 9.52539 51.7813 9.82848 52.313 10.4347C52.8447 11.0302 53.1106 11.9714 53.1106 13.2581L53.0468 14.1674H47.7827C47.7827 15.0501 47.9422 15.7041 48.2612 16.1295C48.5803 16.5549 49.1333 16.7676 49.9202 16.7676C50.7178 16.7676 51.526 16.7357 52.3449 16.6719ZM51.9142 13.2103C51.9142 12.2319 51.7547 11.5407 51.4357 11.1365C51.1272 10.7324 50.6168 10.5304 49.9043 10.5304C49.2024 10.5304 48.6707 10.7431 48.3091 11.1684C47.9581 11.5938 47.7773 12.2744 47.7667 13.2103H51.9142Z" fill="#363636"/>
<path d="M45.7791 10.7217H43.2427V14.5342C43.2427 15.4487 43.3065 16.0496 43.4341 16.3367C43.5724 16.6239 43.8914 16.7674 44.3913 16.7674L45.811 16.6717L45.8907 17.6608C45.1782 17.7777 44.6359 17.8362 44.2636 17.8362C43.4341 17.8362 42.8599 17.6342 42.5408 17.23C42.2218 16.8259 42.0623 16.0549 42.0623 14.917V10.7217H40.9297V9.68479H42.0623V7.24414H43.2427V9.68479H45.7791V10.7217Z" fill="#363636"/>
<path d="M34.6456 17.6609H33.4492V9.68491H34.6297V10.2432C35.4911 9.76467 36.3152 9.52539 37.1022 9.52539C38.1657 9.52539 38.8782 9.81253 39.2398 10.3868C39.612 10.9611 39.7981 11.982 39.7981 13.4496V17.6609H38.6176V13.4815C38.6176 12.3755 38.506 11.6204 38.2827 11.2163C38.07 10.8015 37.6074 10.5942 36.8948 10.5942C36.5545 10.5942 36.193 10.6473 35.8101 10.7537C35.4379 10.8494 35.1508 10.9451 34.9487 11.0408L34.6456 11.1844V17.6609Z" fill="#363636"/>
<path d="M30.0469 17.6606V6.62183H31.2752V17.6606H30.0469Z" fill="#363636"/>
</svg>

<svg xmlns="http://www.w3.org/2000/svg" fill="none" viewBox="0 0 99 24"><path fill="#fff" d="M20.497 14.868c.565-1.722.339-3.65 0-5.306-.71-1.514-1.599-3.11-3.058-4.161-1.48-1.065-3.357-1.444-5.052-1.637-1.672.201-3.49.486-4.949 1.536C5.96 6.365 5.025 8.078 4.316 9.615c-.323 1.638-.557 3.554 0 5.253.565 1.723 1.865 3.018 3.122 4.161 1.472.811 3.138 1.596 4.942 1.596 1.828 0 3.573-.798 5.059-1.629 1.233-1.137 2.5-2.428 3.058-4.127Z"/><path fill="#B4EEE0" d="M12.408 20.301c-1.803 0-3.498-.462-4.97-1.272.056 1.143 2.293 2.498 5.008 2.498 2.716 0 4.826-1.665 4.992-2.531a10.275 10.275 0 0 1-5.03 1.305Z"/><path fill="#D3D6E2" d="M7.438 19.03a10.096 10.096 0 0 1-2.808-4.337c-.557-1.7-.638-3.439-.314-5.077-.987.235-1.51 3.56-.85 5.492.66 1.93 2.99 4.343 3.972 3.922Z"/><path fill="#FFC9DD" d="M7.61 5.629a10.255 10.255 0 0 1 4.776-1.865c-.813-.711-4.105-.185-5.534.896C5.423 5.742 3.74 8.603 4.315 9.616A10.117 10.117 0 0 1 7.61 5.629Z"/><path fill="#FFEBB2" d="M12.387 3.764c1.748.198 3.416.843 4.843 1.874a10.113 10.113 0 0 1 3.266 3.924c.613-1.03-.755-3.752-2.57-4.938-1.814-1.186-5.077-1.495-5.54-.86Z"/><path fill="#C6E4A2" d="M20.496 9.56a10.013 10.013 0 0 1-.301 5.144 10.098 10.098 0 0 1-2.758 4.291c1.402.134 3.348-1.712 3.946-3.948.597-2.235-.013-5.367-.887-5.486Z"/><path fill="#A4BFDD" d="M3.467 15.107c-.598.748.159 3.896 2.693 5.678 2.534 1.782 5.732 1.394 6.288.742a10.336 10.336 0 0 1-5.009-2.498 10.253 10.253 0 0 1-3.972-3.922Z"/><path fill="#99E2D1" d="M21.382 15.047a10.237 10.237 0 0 1-3.945 3.948 10.328 10.328 0 0 1-4.992 2.531c.67.808 4.311.4 6.282-.782 1.971-1.181 3.038-4.672 2.655-5.697Z"/><path fill="#FFA7B3" d="M4.315 9.615A10.174 10.174 0 0 1 6.852 4.66C5.526 4.174 3.014 6.374 2.234 8.95c-.78 2.578-.153 5.529 1.232 6.155-.236-1.87.06-3.777.85-5.49Z"/><path fill="#FCA" d="M12.385 3.764c1.89-.227 3.813.071 5.54.86.567-1.064-3.032-3.027-5.546-3.027-2.515 0-5.485 1.72-5.527 3.063 1.723-.8 3.644-1.111 5.533-.896Z"/><path fill="#E9D59E" d="M21.382 15.047c1.197-.23 2.088-3.177 1.19-6.161-.898-2.985-3.676-4.57-4.646-4.263a10.167 10.167 0 0 1 2.57 4.938 10.12 10.12 0 0 1 .886 5.486Z"/><path fill="#A499D7" d="M6.157 20.785c-.288-.305-.56-.63-.814-.977a10.055 10.055 0 0 1-1.878-4.701 10.03 10.03 0 0 1-1.23-6.155c-.961.265-2.12 4.078-1.068 6.903 1.05 2.826 4.099 5.089 4.99 4.93Z"/><path fill="#56B8B6" d="M18.73 20.744c-.382.178-.779.333-1.19.465-1.704.55-3.448.63-5.092.317a10.28 10.28 0 0 1-5.159-.304c-.39-.126-.766-.273-1.129-.438.451 1.374 2.74 3.14 6.296 3.14s5.616-1.73 6.274-3.18Z"/><path fill="#68C280" d="M22.573 8.885a10.112 10.112 0 0 1-1.19 6.162 10.04 10.04 0 0 1-1.887 4.767c-.241.328-.498.638-.77.929 1.647.106 4.073-1.694 4.96-4.963.887-3.27-.22-6.493-1.113-6.895Z"/><path fill="#FF7A7F" d="M2.235 8.951A10.182 10.182 0 0 1 6.853 4.66a10.208 10.208 0 0 1 4.354-2.758c.39-.125.781-.226 1.173-.304-1.39-.688-4.787-.28-6.956 1.127-2.17 1.407-3.588 4.9-3.189 6.227Z"/><path fill="#FFBA86" d="M12.379 1.598c.414.079.828.184 1.238.316a10.213 10.213 0 0 1 4.308 2.709 10.17 10.17 0 0 1 4.647 4.262c.627-1.184-1.275-4.744-3.231-6.207-1.956-1.462-5.505-1.733-6.962-1.08Z"/><path fill="#835283" d="M2.236 8.951a10.09 10.09 0 0 1 3.19-6.227A10.134 10.134 0 0 0 .71 8.431c-.834 2.544-.6 5.178.457 7.423a10.046 10.046 0 0 1 1.068-6.903Z"/><path fill="#8075B4" d="M6.159 20.785a10.17 10.17 0 0 1-4.991-4.93 10.108 10.108 0 0 0 4.02 6.206 10.28 10.28 0 0 0 7.267 1.863 10.255 10.255 0 0 1-6.296-3.14Z"/><path fill="#2E9D87" d="M18.73 20.744a10.248 10.248 0 0 1-6.273 3.18 10.277 10.277 0 0 0 7.2-1.87 10.109 10.109 0 0 0 4.033-6.273 10.176 10.176 0 0 1-4.96 4.963Z"/><path fill="#549558" d="M22.571 8.886a10.046 10.046 0 0 1 1.114 6.895 10.027 10.027 0 0 0 .428-7.362 10.133 10.133 0 0 0-4.773-5.74 10.092 10.092 0 0 1 3.231 6.207Z"/><path fill="#FF9952" d="M12.381 1.598a10.299 10.299 0 0 1 6.962 1.081A10.257 10.257 0 0 0 12.409 0a10.26 10.26 0 0 0-6.983 2.726 10.294 10.294 0 0 1 6.955-1.127Z"/><path fill="#363636" d="M94.695 17.66V9.686h1.18v1.085c.926-.639 1.899-1.059 2.92-1.26v1.212a8.83 8.83 0 0 0-1.404.398 9.41 9.41 0 0 0-1.1.479l-.4.207v5.855h-1.196ZM92.384 16.672l.463-.048.032.941c-1.213.17-2.25.255-3.111.255-1.149 0-1.962-.33-2.44-.989-.48-.67-.719-1.707-.719-3.11 0-2.797 1.112-4.196 3.334-4.196 1.074 0 1.877.303 2.41.91.53.595.797 1.536.797 2.823l-.064.91h-5.264c0 .882.16 1.536.478 1.962.32.425.872.638 1.66.638.797 0 1.605-.032 2.424-.096Zm-.43-3.462c0-.978-.16-1.67-.48-2.074-.308-.404-.818-.606-1.53-.606-.703 0-1.234.213-1.596.638-.35.426-.532 1.106-.542 2.042h4.147ZM82.164 21.41c-1.276 0-2.17-.176-2.68-.527-.5-.34-.75-.968-.75-1.882 0-.436.096-.792.288-1.069.19-.266.515-.569.973-.91-.298-.201-.447-.568-.447-1.1 0-.18.133-.516.399-1.005l.143-.255c-.84-.383-1.26-1.186-1.26-2.409 0-1.818.994-2.728 2.983-2.728.51 0 .984.054 1.42.16l.24.048 2.36-.064v1.02l-1.516-.031c.352.35.527.883.527 1.595 0 1-.25 1.702-.75 2.106-.489.393-1.265.59-2.329.59-.287 0-.547-.021-.781-.064-.192.468-.287.771-.287.91 0 .33.1.536.302.622.203.074.814.111 1.835.111 1.02 0 1.755.16 2.201.479.447.319.67.941.67 1.866 0 1.691-1.18 2.537-3.541 2.537Zm-2.25-2.505c0 .564.155.952.463 1.165.32.223.899.335 1.74.335.85 0 1.456-.117 1.818-.351.372-.234.558-.628.558-1.18 0-.543-.133-.894-.399-1.054-.266-.16-.787-.239-1.563-.239l-1.723-.08c-.35.256-.59.479-.718.67-.117.192-.175.436-.175.734Zm.112-6.652c0 .628.139 1.074.415 1.34.287.266.755.399 1.404.399.649 0 1.111-.133 1.388-.399.276-.266.415-.712.415-1.34 0-.638-.139-1.09-.415-1.356-.277-.266-.74-.399-1.388-.399-.649 0-1.117.139-1.404.415-.276.266-.415.713-.415 1.34ZM77.086 6.207v11.454h-1.18v-.543c-.82.468-1.628.702-2.425.702-.426 0-.798-.053-1.117-.16a2.29 2.29 0 0 1-.893-.573c-.575-.575-.862-1.633-.862-3.175 0-1.553.256-2.67.766-3.35.521-.691 1.377-1.037 2.568-1.037.617 0 1.271.07 1.962.208V6.207h1.18Zm-4.69 10.018c.17.202.35.34.542.415.192.074.436.111.734.111.309 0 .649-.047 1.021-.143a6.53 6.53 0 0 0 .893-.303l.32-.144v-5.407a10.343 10.343 0 0 0-1.899-.192c-.808 0-1.372.26-1.69.782-.32.51-.48 1.308-.48 2.393 0 1.233.187 2.063.559 2.488ZM68.65 16.672l.462-.048.032.941c-1.212.17-2.25.255-3.11.255-1.15 0-1.963-.33-2.441-.989-.479-.67-.718-1.707-.718-3.11 0-2.797 1.111-4.196 3.334-4.196 1.074 0 1.877.303 2.409.91.531.595.797 1.536.797 2.823l-.064.91h-5.264c0 .882.16 1.536.479 1.962.319.425.872.638 1.659.638.797 0 1.606-.032 2.425-.096Zm-.431-3.462c0-.978-.16-1.67-.479-2.074-.308-.404-.819-.606-1.531-.606-.702 0-1.234.213-1.595.638-.351.426-.532 1.106-.543 2.042h4.148ZM59.95 17.66V6.208h1.196v11.454h-1.197ZM54.656 17.66V9.686h1.18v1.085c.926-.639 1.899-1.059 2.92-1.26v1.212a8.83 8.83 0 0 0-1.404.398c-.478.181-.845.34-1.1.479l-.4.207v5.855h-1.196ZM52.345 16.672l.462-.048.032.941c-1.212.17-2.249.255-3.11.255-1.149 0-1.962-.33-2.44-.989-.48-.67-.719-1.707-.719-3.11 0-2.797 1.112-4.196 3.334-4.196 1.074 0 1.877.303 2.409.91.532.595.798 1.536.798 2.823l-.064.91h-5.264c0 .882.16 1.536.478 1.962.32.425.872.638 1.66.638.797 0 1.605-.032 2.424-.096Zm-.43-3.462c0-.978-.16-1.67-.48-2.074-.308-.404-.818-.606-1.53-.606-.703 0-1.234.213-1.596.638-.35.426-.532 1.106-.542 2.042h4.147ZM45.78 10.722h-2.537v3.812c0 .915.063 1.516.191 1.803.138.287.457.43.957.43l1.42-.095.08.989c-.713.117-1.255.175-1.627.175-.83 0-1.404-.202-1.723-.606-.32-.404-.479-1.175-.479-2.313v-4.195H40.93V9.685h1.132v-2.44h1.18v2.44h2.537v1.037ZM34.646 17.66h-1.197V9.686h1.18v.558c.862-.478 1.686-.718 2.473-.718 1.064 0 1.776.288 2.138.862.372.574.558 1.595.558 3.063v4.21h-1.18v-4.178c0-1.106-.112-1.862-.335-2.266-.213-.414-.676-.622-1.388-.622-.34 0-.702.053-1.085.16a5.03 5.03 0 0 0-.861.287l-.303.143v6.477ZM30.047 17.66V6.623h1.228V17.66h-1.228Z"/></svg>
